X:496
T:Whiskey Before Breakfast
C:Traditional
N:Transcribed by Simon Shartel
R:bluegrass
L:1/8
Q:1/4=240
M:4/4
K:D
z8 |: "D"DE FG A2 F2 | AB AF E2 D2 | "G"G2 BG "D"F2 AF | "A"EF ED CB, A,2 | "D"DE FG A2 F2 | 
AB AF E2 D2 | "G"G2 BG "D"F2 AF |1 "A"EF EC "D"D2 (3A,B,C :|2 E"A"F EC "D"D2 FE | 
|: DF Ac d2 Bc | "D"dB AG FE D2 | "Em"e2 ef ed ef | "A"gf ed cB A2 | "D"d2 fd "A"c2 ec | 
"G"Bc dB "D"AF EF | "G"G2 BG "D"F2 AF |1 E"A"F EC "D"D2 FE :|2 E"A"F EC "D"D4 | 


